symbols/web/how_to_vote/materialsymbolsoutlined/how_to_vote_wght600grad200_40px.svg

<svg xmlns="http://www.w3.org/2000/svg" height="40" width="40"><path d="M7.792 37.667q-1.667 0-2.854-1.188-1.188-1.187-1.188-2.812v-7.792l6-6.583 2.875 2.875-4.583 5.041H32l-4.417-5 2.875-2.875 5.792 6.542v7.792q0 1.625-1.188 2.812-1.187 1.188-2.854 1.188Zm0-4h24.416V30H7.792v3.667Zm9.5-10.292-5.875-5.917q-1.167-1.208-1.125-2.854.041-1.646 1.25-2.854l8.125-8.167q1.166-1.125 2.833-1.145 1.667-.021 2.875 1.187l5.875 5.917q1.208 1.208 1.188 2.812-.021 1.604-1.313 2.854L23 23.375q-1.167 1.208-2.833 1.208-1.667 0-2.875-1.208ZM28.167 12.25 22.5 6.667l-8 8 5.625 5.625ZM7.792 33.667V30v3.667Z"/></svg>

<svg xmlns="http://www.w3.org/2000/svg" height="40" width="40"><path d="M8.042 27.208H32L27.583 22.208L30.458 19.333L36.25 25.875V33.667Q36.25 35.292 35.062 36.479Q33.875 37.667 32.208 37.667H7.792Q6.125 37.667 4.938 36.479Q3.75 35.292 3.75 33.667V25.875L9.75 19.292L12.625 22.167ZM31.125 15.208 23 23.375Q21.833 24.583 20.167 24.583Q18.5 24.583 17.292 23.375L11.417 17.458Q10.25 16.25 10.292 14.604Q10.333 12.958 11.542 11.75L19.667 3.583Q20.833 2.458 22.5 2.438Q24.167 2.417 25.375 3.625L31.25 9.542Q32.458 10.75 32.438 12.354Q32.417 13.958 31.125 15.208ZM28.167 12.25Q28.167 12.25 28.167 12.25Q28.167 12.25 28.167 12.25L22.5 6.667Q22.5 6.667 22.5 6.667Q22.5 6.667 22.5 6.667L14.5 14.667Q14.5 14.667 14.5 14.667Q14.5 14.667 14.5 14.667L20.125 20.292Q20.125 20.292 20.125 20.292Q20.125 20.292 20.125 20.292ZM7.792 33.667H32.208Q32.208 33.667 32.208 33.667Q32.208 33.667 32.208 33.667V30H7.792V33.667Q7.792 33.667 7.792 33.667Q7.792 33.667 7.792 33.667ZM7.792 33.667Q7.792 33.667 7.792 33.667Q7.792 33.667 7.792 33.667V30V33.667Q7.792 33.667 7.792 33.667Q7.792 33.667 7.792 33.667Z"/></svg>
